X: 28790
T: My Love Is Like The Sun
R: reel
M: 4/4
K: Edorian
D2|F2 E F2 A2|B4 e2 d2|B3 A F2 D2|E5 e2|B4 c2 d2|e4 g2 f2|e5 B2|
d3 e f2 d2|e4 d2 c2|B2 A2 F2 D2|E4 G2 A2|B e3 d2 c2|B A3 F2 D2|E4||

